X:1
T:O Hallelujah, Praise His Holy Name
T:O Hallelujah, Praise His Holy Name
T:Max Hutchison Rapp
T:Max Hutchison Rapp, 1921
T:Public Domain Courtesy of the Cyber Hymnal™
T:Public Domain Courtesy of the Cyber Hymnal™
C:Max Hutchison Rapp
Z:Public Domain
Z:Courtesy of the Cyber Hymnal™
%%score ( 1 2 ) ( 3 4 )
L:1/8
Q:1/4=110
M:4/4
K:Ab
V:1 treble 
V:2 treble 
V:3 bass 
V:4 bass 
V:1
 EE | [CA][CA][CA][CA] [DG]2 [DB]>[DB] | [CA]4 [CE]2 [CE][CE] | [DF][D=E][DF][_EG] [FA]2 [DF]2 | %4
w: 1.~There’s a|sto- ry that’s been told, Hal- le-|lu- jah! Of a|Sav- ior and His pre- cious|
w: 2.~There’s a|song that’s in my heart, Hal- le-|lu- jah! I’m so|glad that He has made me|
w: 3.~There’s a|song that’s in the air, Hal- le-|lu- jah! All the|an- gels sing it in the|
 [CE]6 [CE][CA] | [DB][DB][C=A][Ec] [EB]2 E>E | [Ec]4 [CA]2 [Ec][Ec] | %7
w: love; How He|died to make us free, Hal- le-|lu- jah! That we|
w: whole; I am|saved, and by His grace, Hal- le-|lu- jah! I will|
w: sky; “Just re-|pent and He’ll for- give,” Hal- le-|lu- jah! And your|
 [EB][EB][Ee][Ec] [EB][EG] [=DF]>[DF] | E6 z2 ||"^Refrain" [Ge] [Ge]2 [A=d] [E_d][EG][Ec][EB] | %10
w: all might go and live with Him a-|bove.||
w: al- ways keep His love with- in my|soul.|O Hal- le- lu- jah! Praise His|
w: soul to Him for re- fuge then will|fly.||
 [EA]2 [Ec]2 [CE]2 z [Ec] | [EB]3 [GB] [Ac]2 [A=d]2 | e6 E[DE] | [CA][CA][CA][CA] [DG]2 EE | %14
w: ||||
w: ho- ly name and|let our voic- es|ring; There are|man- sions up a- bove, All pre-|
w: ||||
 [EA][EB][Ec][Ed] !fermata![Ae]2 !fermata![Af]2 | [Ae] [Ae]2 [Ad] [Ac]2 B2 | [EA]6 |] %17
w: |||
w: pared for those who love And|sing of their Sav- ior|king.|
w: |||
V:2
 EE | x8 | x8 | x8 | x8 | x6 E>E | x8 | x8 | E6 x2 || x8 | x8 | x8 | (GABA G2) E x | x6 EE | x8 | %15
 x6 (GE) | x6 |] %17
V:3
 E,E, | [A,,E,][A,,E,][A,,E,][A,,E,] [B,,E,]2 [E,G,]>[E,G,] | [A,,A,]4 [A,,A,]2 [A,,A,][A,,A,] | %3
 [D,A,][D,G,][D,A,][D,A,] [D,D]2 [D,A,]2 | [A,,A,]6 [A,,A,][A,,A,] | %5
 [E,G,][E,G,][E,^F,][E,F,] [E,G,]2 [E,G,]>[E,G,] | [A,,A,]4 [E,,E,]2 [G,,E,][G,,E,] | %7
 [B,,G,][B,,G,][G,,B,][A,,A,] [B,,G,][B,,B,] [B,,B,]>[B,,A,] | [E,G,]6 z2 || %9
 [E,B,] [E,B,]2 [F,B,] [G,B,][E,B,][F,D][G,D] | [A,C]2 A,2 [A,,A,]2 z [A,,A,] | %11
 [B,,G,]3 [B,,E] [B,,=D]2 [B,,B,]2 | B,6 [C,A,][B,,G,] | %13
 [A,,A,][A,,E,][A,,E,][A,,E,] [B,,E,]2 [E,G,][D,G,] | %14
 [C,A,][E,G,]A,[A,B,] !fermata![A,C]2 !fermata![A,D]2 | [A,C] [C,E]2 [D,F] [E,E]2 [E,D]2 | %16
 [A,,A,C]6 |] %17
V:4
 E,E, | x8 | x8 | x8 | x8 | x8 | x8 | x8 | x8 || x8 | x2 A,2 x4 | x8 | (E,F,G,F,E,D,) x2 | x8 | %14
 x2 A, x5 | x8 | x6 |] %17

